_inc/images/systems/logos/gbch.svg

<svg viewBox="0 0 264 85" xmlns="http://www.w3.org/2000/svg">
    <path d="M284.502 135.059c-.911-2.761-3.319-5.392-3.319-5.392s-3.615-4.694-10.72-6.297c-6.083-1.273-10.862 1.409-10.862 1.409s-4.339 1.738-7.601 5.335c-5.195 4.999-6.689 12.298-6.689 12.298s-1.991 6.354 1.162 11.387l3.427 4.146c4.837 4.037 10.005 4.447 10.005 4.447s4.173.941 9.04-.329c4.254-.86 7.35-2.96 7.35-2.96s7.048-3.895 8.982-11.854l-.775-12.19Zm-10.977 13.237s-2.815 4.921-9.006 4.338c-7.269-.745-8.123-7.129-8.123-7.129s-.998-4.698 3.479-8.789c4.535-3.811 9.26-3.232 9.26-3.232s3.177.302 4.81 5.555c2.1 6.689-.42 9.257-.42 9.257" style="fill-opacity:1;fill:#fff" transform="scale(.44 .43888)"/>
    <path d="M307.991 148.38c-2.326-.513-6.053.441-6.053.441s-5.192 1.907-5.995 1.879c-.305-.44-.965-8.928-.775-12.325.111-5.998-.39-10.889-.39-10.889s-.247-5.778-3.343-9.203c-3.647-3.678-6.191-2.1-7.654-1.219-3.512 3.153-1.88 6.991-1.88 6.991l1.825 5.172s.884 2.211.776 5.829l.772 12.19c0 1.632 1.328 12.603 1.328 12.603s.136 3.566 3.563 4.2c3.512.582 6.964-1.162 8.43-1.853 1.464-.688 3.398-1.297 3.398-1.297s1.605-.359 3.207-.495c3.759-.362 5.111-1.023 5.111-1.023s1.454-.22 2.435-1.605c.978-1.385 2.16-7.875-4.755-9.396m-61.518 5.416c-2.471-.739-5.304-.247-5.304-.247s-8.017.772-12.19-.112c-6.466-1.131-6.249-8.098-6.249-8.098s-.217-4.617 3.678-10.862c4.81-7.712 10.117-9.094 10.117-9.094s1.322-.495 2.568.166c.775 4.474 5.111 4.447 5.111 4.447s6.249.417 5.941-7.154c-.718-6.221-6.714-7.075-9.23-7.657-7.54-1.355-12.437 2.682-12.437 2.682s-5.057 2.734-11.109 12.268c-4.122 5.914-4.617 10.56-4.617 10.56s-.497 1.105-.304 6.026c-.109 3.841 1.33 6.632 1.33 6.632s2.182 6.61 9.091 9.317c4.2 1.741 10.337 1.713 10.337 1.713s5.941-.084 10.5-.331c2.489.193 3.678-1.108 3.678-1.108s2.788-1.822 2.513-5.002c0 0-.54-3.283-3.424-4.146" style="fill-opacity:1;fill:#fff" transform="scale(.44 .43888)"/>
    <path d="M346.88 133.593c-4.834-7.902-13.348-9.091-13.348-9.091s-2.71-.914-8.512-.142c-10.889 2.076-14.676 10.449-14.676 10.449s-3.898 6.134-2.35 13.571l4.758 9.396c3.509 3.289 4.945 3.289 5.166 3.485 4.643 2.1 10.032.884 10.032.884s6.801-.664 13.019-5.501c4.972-3.648 7.13-9.009 7.13-9.009l.661-7.196-1.88-6.846Zm-13.237 16.139c-7.82 4.701-12.744-.441-12.744-.441s-2.182-1.439-2.653-5.805c-.335-5.057 4.701-7.682 4.701-7.682s2.652-1.632 5.968-1.382c3.316.248 4.363.028 7.049 2.019 2.54 2.293 2.374 3.977 2.374 3.977s.914 5.696-4.695 9.314" style="fill-opacity:1;fill:#fff" transform="scale(.44 .43888)"/>
    <path d="M348.096 147.635s.166 4.42-.525 5.5c-.939 2.016-.8 3.977-.8 3.977s-.639 5.971 6.276 6.964c4.749-.027 5.328-3.98 5.413-5.667.274-1.324.166-7.488.166-7.488l6.164 5.029s4.475 3.76 7.106 5.941c2.736 2.155 3.424 2.544 3.424 2.544s.582.688 2.679.44c1.69.03 3.238-1.493 3.238-1.493s1.958-1.433 2.456-3.95c.606-2.984-1.714-4.45-1.714-4.45s-8.563-6.91-14.368-11.665c3.895-2.127 5.775-3.59 5.775-3.59s5.419-3.594 6.578-9.094c1.605-6.056-2.957-8.43-2.957-8.43s-2.848-2.043-5.25-3.123c-6.056-2.957-11.692-2.351-11.692-2.351s-8.014-.552-13.236 5.89c-2.405 3.123-.912 7.214-.912 7.214s.296.655.966 3.757c1.34 6.245 1.213 14.045 1.213 14.045Zm10.503-12.274-.525-7.211s5.057-.112 7.157.247c4.148.634 3.925 1.798 3.925 1.798s-.139 1.464-3.289 2.903c-3.424 1.656-7.268 2.263-7.268 2.263" style="fill-opacity:1;fill:#fff" transform="scale(.44 .43888)"/>
    <path style="fill:#fff" d="M573.943.969h26.056l-36.734 57.146-5.958 44.582h-23.548l6.902-50.87L517.113.969h25.43l12.564 28.89zM299.545 62.507h31.074l3.142-22.604h-30.764l2.202-16.33h35.782l3.46-22.604h-59.34l-14.128 101.728h59.022l3.14-22.614h-35.79zM118.703 52.455l7.85-21.034 2.514 21.034h-10.362Zm-8.476 20.094h21.346l3.772 30.14h38.614l17.898-55.258 8.792 55.258h20.41l22.604-58.396 3.768 58.396h22.602L263.755.965h-27.002l-21.038 53.686L207.551.965h-24.174l-27.63 83.514L145.387.965h-30.14L81.651 85.417l4.396-32.962h-40.82l-2.828 20.09h17.898l-1.258 6.908c-3.138 1.882-10.358 2.198-13.184 2.198-2.824 0-23.86-1.882-22.92-24.49.936-22.602 31.074-43.638 66.866-32.022l3.456-21.664C69.395-4.685 6.725-.117.321 55.905c-3.764 32.968 26.378 48.666 46.468 48.356 11.616.628 24.806-3.768 29.512-6.282l-1.568 4.71h23.862l11.616-30.14Z" transform="scale(.44 .43888)"/>
    <path d="M491.681.029c-16.326-.63-39.874 8.79-47.722 46.78-7.848 37.986 13.184 53.372 32.652 55.886 19.466 2.51 46.782-9.734 51.802-46.152C533.443 20.121 515.535.971 491.681.029Zm-2.506 21.664c6.592 0 20.718 4.396 17.264 30.764-3.452 26.374-19.778 29.514-25.742 28.888-5.97-.632-18.212-4.71-14.758-28.888 3.46-24.17 16.33-31.08 23.242-30.764Z" style="fill:#fff" transform="scale(.44 .43888)"/>
    <path d="M392.467 39.903h13.188c9.73 0 11.616-6.28 11.926-8.79.314-2.512-2.51-7.536-7.53-7.536h-15.384l-2.192 16.326Zm-5.652 40.186h17.898c9.73 0 11.928-7.534 12.242-10.048.314-2.51-2.512-7.534-7.534-7.534h-20.092l-2.51 17.582Zm-26.364 22.606L374.581.971h43.324c10.364 0 25.432 11.934 23.55 27.942-1.884 16.014-6.908 16.958-10.362 19.468 5.34 4.706 10.674 12.24 8.478 26.37-2.2 14.132-13.816 27.944-34.22 27.944h-44.898Z" style="fill:#fff" transform="scale(.44 .43888)"/>
    <path d="M83.597 84.815h-2.464v-2.717h-1.848v2.717h-2.464v-7.68h2.464v2.716h1.848v-2.716h2.464v7.68Zm3.352-1.215-.286 1.215h-2.6l1.998-7.68h3.806l1.997 7.68h-2.6l-.282-1.215h-2.033Zm1.083-4.104h-.137l-.506 2.151h1.136l-.493-2.151Zm9.412 3.12.185 2.063c-.516.213-1.164.321-1.945.321-.78 0-1.406-.083-1.879-.246-.472-.164-.844-.421-1.117-.772a3.201 3.201 0 0 1-.568-1.242c-.105-.478-.158-1.065-.158-1.761s.053-1.283.158-1.759c.108-.481.298-.898.568-1.251.525-.679 1.49-1.019 2.895-1.019.314 0 .682.031 1.104.092.423.062.737.138.942.229l-.37 1.878a7.062 7.062 0 0 0-1.465-.171c-.442 0-.75.04-.924.123-.173.082-.259.245-.259.492v3.221c.319.064.644.096.972.096.698 0 1.318-.097 1.861-.294Zm3.56-1.145h-.049v3.344h-2.464v-7.68h2.464v3.133h.049c.017-.245.058-.442.123-.587l1.21-2.546h2.658l-1.848 3.774 1.909 3.906h-2.657l-1.272-2.752a1.825 1.825 0 0 1-.123-.592Zm4.484 3.208.344-2.027c.756.189 1.437.285 2.041.285.605 0 1.091-.026 1.461-.075v-.614l-1.109-.101c-1.003-.088-1.69-.327-2.063-.716-.375-.389-.564-.965-.564-1.729 0-1.048.229-1.768.687-2.163.455-.393 1.227-.589 2.319-.589 1.094 0 2.08.102 2.956.308l-.308 1.966c-.762-.123-1.373-.185-1.834-.185-.461 0-.851.021-1.171.062v.601l.889.088c1.077.105 1.821.361 2.231.768.411.404.616.967.616 1.69 0 .515-.071.951-.211 1.308-.141.356-.307.627-.498.812-.193.184-.467.325-.822.42-.352.1-.661.16-.929.181-.266.02-.621.031-1.065.031-1.067 0-2.057-.108-2.97-.321Zm11.447-2.813h-1.909v-1.769h1.909v-1.905h1.774v1.905h1.922v1.769h-1.922v1.918h-1.774v-1.918Zm13.833 2.949h-2.464v-2.717h-1.848v2.717h-2.464v-7.68h2.464v2.716h1.848v-2.716h2.464v7.68Zm.863-3.836c0-1.398.262-2.42.787-3.063.525-.644 1.474-.966 2.847-.966s2.321.322 2.847.966c.524.643.787 1.665.787 3.063 0 .696-.056 1.283-.167 1.761a3.281 3.281 0 0 1-.572 1.242c-.27.351-.644.608-1.122.772-.475.163-1.066.246-1.773.246-.708 0-1.298-.083-1.773-.246-.479-.164-.853-.421-1.122-.772a3.251 3.251 0 0 1-.572-1.242c-.112-.478-.167-1.065-.167-1.761Zm2.648-1.277v3.195h1.021c.337 0 .582-.039.735-.113.152-.08.229-.259.229-.536v-3.195h-1.034c-.329 0-.57.037-.722.114-.153.079-.229.257-.229.535Zm7.897 1.392-.149 3.721h-2.574l.466-7.68h3.217l.963 3.906h.084l.963-3.906h3.212l.471 7.68h-2.574l-.149-3.721h-.088l-.933 3.721h-1.888l-.946-3.721h-.075Zm12.504-.962v1.782h-2.464v.935h3.019v1.966h-5.483v-7.68h5.421l-.308 1.966h-2.649v1.031h2.464Zm6.023 4.683h-4.422v-7.68h3.991c.739 0 1.267.143 1.584.43.317.286.475.705.475 1.255 0 .547-.101.97-.303 1.268a1.343 1.343 0 0 1-.806.584v.075c.995.172 1.492.848 1.492 2.028 0 .614-.164 1.108-.493 1.483-.328.371-.834.557-1.518.557Zm-.999-3.059h-.959v1.251h.951c.343 0 .514-.208.514-.623 0-.419-.168-.628-.506-.628Zm-.184-2.936h-.775v1.141h.766c.311 0 .466-.191.466-.571 0-.38-.152-.57-.457-.57Zm9.44 3.441 1.329 2.554h-2.71l-1.012-2.287h-.528v2.287h-2.464v-7.68h3.88c1.767 0 2.649.896 2.649 2.69 0 1.229-.381 2.041-1.144 2.436Zm-2.354-3.16h-.567v1.536h.567c.297 0 .512-.031.647-.092.135-.062.202-.204.202-.426v-.5c0-.223-.067-.364-.202-.426-.135-.061-.35-.092-.647-.092Zm9.473 1.031v1.782h-2.464v.935h3.019v1.966h-5.483v-7.68h5.421l-.308 1.966h-2.649v1.031h2.464Zm7.933 1.291.594-4.288h2.574l-1.21 7.68h-3.212l-.568-2.826h-.149l-.555 2.826h-3.216l-1.206-7.68h2.574l.581 4.288h.075l.884-4.288h1.888l.871 4.288h.075Z" style="fill:#fff;white-space:pre"/>
</svg>

<?xml version="1.0" encoding="utf-8"?>
<svg id="svg2" version="1.1" enable-background="new 0 0 566.929 98.574" y="0px" x="0px" viewBox="0 0 264 85" xmlns="http://www.w3.org/2000/svg">
  <g transform="matrix(0.44, 0, 0, 0.438879, 0.000225, -0.00004)">
    <path id="path5256" d="M 284.502 135.059 C 283.591 132.298 281.183 129.667 281.183 129.667 C 281.183 129.667 277.568 124.973 270.463 123.37 C 264.38 122.097 259.601 124.779 259.601 124.779 C 259.601 124.779 255.262 126.517 252 130.114 C 246.805 135.113 245.311 142.412 245.311 142.412 C 245.311 142.412 243.32 148.766 246.473 153.799 L 249.9 157.945 C 254.737 161.982 259.905 162.392 259.905 162.392 C 259.905 162.392 264.078 163.333 268.945 162.063 C 273.199 161.203 276.295 159.103 276.295 159.103 C 276.295 159.103 283.343 155.208 285.277 147.249 L 284.502 135.059 Z M 273.525 148.296 C 273.525 148.296 270.71 153.217 264.519 152.634 C 257.25 151.889 256.396 145.505 256.396 145.505 C 256.396 145.505 255.398 140.807 259.875 136.716 C 264.41 132.905 269.135 133.484 269.135 133.484 C 269.135 133.484 272.312 133.786 273.945 139.039 C 276.045 145.728 273.525 148.296 273.525 148.296" style="fill-opacity: 1; fill: rgb(255, 255, 255);"/>
    <path id="path5262" d="M 307.991 148.38 C 305.665 147.867 301.938 148.821 301.938 148.821 C 301.938 148.821 296.746 150.728 295.943 150.7 C 295.638 150.26 294.978 141.772 295.168 138.375 C 295.279 132.377 294.778 127.486 294.778 127.486 C 294.778 127.486 294.531 121.708 291.435 118.283 C 287.788 114.605 285.244 116.183 283.781 117.064 C 280.269 120.217 281.901 124.055 281.901 124.055 L 283.726 129.227 C 283.726 129.227 284.61 131.438 284.502 135.056 L 285.274 147.246 C 285.274 148.878 286.602 159.849 286.602 159.849 C 286.602 159.849 286.738 163.415 290.165 164.049 C 293.677 164.631 297.129 162.887 298.595 162.196 C 300.059 161.508 301.993 160.899 301.993 160.899 C 301.993 160.899 303.598 160.54 305.2 160.404 C 308.959 160.042 310.311 159.381 310.311 159.381 C 310.311 159.381 311.765 159.161 312.746 157.776 C 313.724 156.391 314.906 149.901 307.991 148.38" style="fill-opacity: 1; fill: rgb(255, 255, 255);"/>
    <path id="path5264" d="M 246.473 153.796 C 244.002 153.057 241.169 153.549 241.169 153.549 C 241.169 153.549 233.152 154.321 228.979 153.437 C 222.513 152.306 222.73 145.339 222.73 145.339 C 222.73 145.339 222.513 140.722 226.408 134.477 C 231.218 126.765 236.525 125.383 236.525 125.383 C 236.525 125.383 237.847 124.888 239.093 125.549 C 239.868 130.023 244.204 129.996 244.204 129.996 C 244.204 129.996 250.453 130.413 250.145 122.842 C 249.427 116.621 243.431 115.767 240.915 115.185 C 233.375 113.83 228.478 117.867 228.478 117.867 C 228.478 117.867 223.421 120.601 217.369 130.135 C 213.247 136.049 212.752 140.695 212.752 140.695 C 212.752 140.695 212.255 141.8 212.448 146.721 C 212.339 150.562 213.778 153.353 213.778 153.353 C 213.778 153.353 215.96 159.963 222.869 162.67 C 227.069 164.411 233.206 164.383 233.206 164.383 C 233.206 164.383 239.147 164.299 243.706 164.052 C 246.195 164.245 247.384 162.944 247.384 162.944 C 247.384 162.944 250.172 161.122 249.897 157.942 C 249.897 157.942 249.357 154.659 246.473 153.796" style="fill-opacity: 1; fill: rgb(255, 255, 255);"/>
    <path id="path5258" d="M 346.88 133.593 C 342.046 125.691 333.532 124.502 333.532 124.502 C 333.532 124.502 330.822 123.588 325.02 124.36 C 314.131 126.436 310.344 134.809 310.344 134.809 C 310.344 134.809 306.446 140.943 307.994 148.38 L 312.752 157.776 C 316.261 161.065 317.697 161.065 317.918 161.261 C 322.561 163.361 327.95 162.145 327.95 162.145 C 327.95 162.145 334.751 161.481 340.969 156.644 C 345.941 152.996 348.099 147.635 348.099 147.635 L 348.76 140.439 L 346.88 133.593 L 346.88 133.593 Z M 333.643 149.732 C 325.823 154.433 320.899 149.291 320.899 149.291 C 320.899 149.291 318.717 147.852 318.246 143.486 C 317.911 138.429 322.947 135.804 322.947 135.804 C 322.947 135.804 325.599 134.172 328.915 134.422 C 332.231 134.67 333.278 134.45 335.964 136.441 C 338.504 138.734 338.338 140.418 338.338 140.418 C 338.338 140.418 339.252 146.114 333.643 149.732" style="fill-opacity: 1; fill: rgb(255, 255, 255);"/>
    <path id="path5260" d="M 348.096 147.635 C 348.096 147.635 348.262 152.055 347.571 153.135 C 346.632 155.151 346.771 157.112 346.771 157.112 C 346.771 157.112 346.132 163.083 353.047 164.076 C 357.796 164.049 358.375 160.096 358.46 158.409 C 358.734 157.085 358.626 150.921 358.626 150.921 L 364.79 155.95 C 364.79 155.95 369.265 159.71 371.896 161.891 C 374.632 164.046 375.32 164.435 375.32 164.435 C 375.32 164.435 375.902 165.123 377.999 164.875 C 379.689 164.905 381.237 163.382 381.237 163.382 C 381.237 163.382 383.195 161.949 383.693 159.432 C 384.299 156.448 381.979 154.982 381.979 154.982 C 381.979 154.982 373.416 148.072 367.611 143.317 C 371.506 141.19 373.386 139.727 373.386 139.727 C 373.386 139.727 378.805 136.133 379.964 130.633 C 381.569 124.577 377.007 122.203 377.007 122.203 C 377.007 122.203 374.159 120.16 371.757 119.08 C 365.701 116.123 360.065 116.729 360.065 116.729 C 360.065 116.729 352.051 116.177 346.829 122.619 C 344.424 125.742 345.917 129.833 345.917 129.833 C 345.917 129.833 346.213 130.488 346.883 133.59 C 348.223 139.835 348.096 147.635 348.096 147.635 L 348.096 147.635 Z M 358.599 135.361 L 358.074 128.15 C 358.074 128.15 363.131 128.038 365.231 128.397 C 369.379 129.031 369.156 130.195 369.156 130.195 C 369.156 130.195 369.017 131.659 365.867 133.098 C 362.443 134.754 358.599 135.361 358.599 135.361" style="fill-opacity: 1; fill: rgb(255, 255, 255);"/>
    <polygon id="_43443024" points="573.943 0.969 599.999 0.969 563.265 58.115 557.307 102.697 533.759 102.697 540.661 51.827 517.113 0.969 542.543 0.969 555.107 29.859" style="fill: rgb(255, 255, 255);"/>
    <polygon id="_43441624" points="299.545 62.507 330.619 62.507 333.761 39.903 302.997 39.903 305.199 23.573 340.981 23.573 344.441 0.969 285.101 0.969 270.973 102.697 329.995 102.697 333.135 80.083 297.345 80.083" style="fill: rgb(255, 255, 255);"/>
    <path id="_43775888" d="M 118.703 52.455 L 126.553 31.421 L 129.067 52.455 L 118.705 52.455 Z M 110.227 72.549 L 131.573 72.549 L 135.345 102.689 L 173.959 102.689 L 191.857 47.431 L 200.649 102.689 L 221.059 102.689 L 243.663 44.293 L 247.431 102.689 L 270.033 102.689 L 263.755 0.965 L 236.753 0.965 L 215.715 54.651 L 207.551 0.965 L 183.377 0.965 L 155.747 84.479 L 145.387 0.965 L 115.247 0.965 L 81.651 85.417 L 86.047 52.455 L 45.227 52.455 L 42.399 72.545 L 60.297 72.545 L 59.039 79.453 C 55.901 81.335 48.681 81.651 45.855 81.651 C 43.031 81.651 21.995 79.769 22.935 57.161 C 23.871 34.559 54.009 13.523 89.801 25.139 L 93.257 3.475 C 69.395 -4.685 6.725 -0.117 0.321 55.905 C -3.443 88.873 26.699 104.571 46.789 104.261 C 58.405 104.889 71.595 100.493 76.301 97.979 L 74.733 102.689 L 98.595 102.689 L 110.211 72.549 Z" style="fill: rgb(255, 255, 255);"/>
    <path id="_44102912" d="M 491.681 0.029 C 475.355 -0.601 451.807 8.819 443.959 46.809 C 436.111 84.795 457.143 100.181 476.611 102.695 C 496.077 105.205 523.393 92.961 528.413 56.543 C 533.443 20.121 515.535 0.971 491.681 0.029 Z M 489.175 21.693 C 495.767 21.693 509.893 26.089 506.439 52.457 C 502.987 78.831 486.661 81.971 480.697 81.345 C 474.727 80.713 462.485 76.635 465.939 52.457 C 469.399 28.287 482.269 21.377 489.181 21.693 Z" style="fill: rgb(255, 255, 255);"/>
    <path id="_44104296" d="M 392.467 39.903 L 405.655 39.903 C 415.385 39.903 417.271 33.623 417.581 31.113 C 417.895 28.601 415.071 23.577 410.051 23.577 L 394.667 23.577 L 392.475 39.903 Z M 386.815 80.089 L 404.713 80.089 C 414.443 80.089 416.641 72.555 416.955 70.041 C 417.269 67.531 414.443 62.507 409.421 62.507 L 389.329 62.507 L 386.819 80.089 Z M 360.451 102.695 L 374.581 0.971 L 417.905 0.971 C 428.269 0.971 443.337 12.905 441.455 28.913 C 439.571 44.927 434.547 45.871 431.093 48.381 C 436.433 53.087 441.767 60.621 439.571 74.751 C 437.371 88.883 425.755 102.695 405.351 102.695 L 360.453 102.695 Z" style="fill: rgb(255, 255, 255);"/>
  </g>
  <path d="M 83.597 84.815 L 81.133 84.815 L 81.133 82.098 L 79.285 82.098 L 79.285 84.815 L 76.821 84.815 L 76.821 77.135 L 79.285 77.135 L 79.285 79.851 L 81.133 79.851 L 81.133 77.135 L 83.597 77.135 L 83.597 84.815 Z M 86.949 83.6 L 86.663 84.815 L 84.063 84.815 L 86.061 77.135 L 89.867 77.135 L 91.864 84.815 L 89.264 84.815 L 88.982 83.6 L 86.949 83.6 Z M 88.032 79.496 L 87.895 79.496 L 87.389 81.647 L 88.525 81.647 L 88.032 79.496 Z M 97.444 82.616 L 97.629 84.679 C 97.113 84.892 96.465 85 95.684 85 C 94.904 85 94.278 84.917 93.805 84.754 C 93.333 84.59 92.961 84.333 92.688 83.982 C 92.418 83.626 92.228 83.214 92.12 82.74 C 92.015 82.262 91.962 81.675 91.962 80.979 C 91.962 80.283 92.015 79.696 92.12 79.22 C 92.228 78.739 92.418 78.322 92.688 77.969 C 93.213 77.29 94.178 76.95 95.583 76.95 C 95.897 76.95 96.265 76.981 96.687 77.042 C 97.11 77.104 97.424 77.18 97.629 77.271 L 97.259 79.149 C 96.725 79.035 96.237 78.978 95.794 78.978 C 95.352 78.978 95.044 79.018 94.87 79.101 C 94.697 79.183 94.611 79.346 94.611 79.593 L 94.611 82.814 C 94.93 82.878 95.255 82.91 95.583 82.91 C 96.281 82.91 96.901 82.813 97.444 82.616 Z M 101.004 81.471 L 100.955 81.471 L 100.955 84.815 L 98.491 84.815 L 98.491 77.135 L 100.955 77.135 L 100.955 80.268 L 101.004 80.268 C 101.021 80.023 101.062 79.826 101.127 79.681 L 102.337 77.135 L 104.995 77.135 L 103.147 80.909 L 105.056 84.815 L 102.399 84.815 L 101.127 82.063 C 101.062 81.914 101.021 81.716 101.004 81.471 Z M 105.488 84.679 L 105.832 82.652 C 106.588 82.841 107.269 82.937 107.873 82.937 C 108.478 82.937 108.964 82.911 109.334 82.862 L 109.334 82.248 L 108.225 82.147 C 107.222 82.059 106.535 81.82 106.162 81.431 C 105.787 81.042 105.598 80.466 105.598 79.702 C 105.598 78.654 105.827 77.934 106.285 77.539 C 106.74 77.146 107.512 76.95 108.604 76.95 C 109.698 76.95 110.684 77.052 111.56 77.258 L 111.252 79.224 C 110.49 79.101 109.879 79.039 109.418 79.039 C 108.957 79.039 108.567 79.06 108.247 79.101 L 108.247 79.702 L 109.136 79.79 C 110.213 79.895 110.957 80.151 111.367 80.558 C 111.778 80.962 111.983 81.525 111.983 82.248 C 111.983 82.763 111.912 83.199 111.772 83.556 C 111.631 83.912 111.465 84.183 111.274 84.368 C 111.081 84.552 110.807 84.693 110.452 84.788 C 110.1 84.888 109.791 84.948 109.523 84.969 C 109.257 84.989 108.902 85 108.458 85 C 107.391 85 106.401 84.892 105.488 84.679 Z M 116.935 81.866 L 115.026 81.866 L 115.026 80.097 L 116.935 80.097 L 116.935 78.192 L 118.709 78.192 L 118.709 80.097 L 120.631 80.097 L 120.631 81.866 L 118.709 81.866 L 118.709 83.784 L 116.935 83.784 L 116.935 81.866 Z M 130.768 84.815 L 128.304 84.815 L 128.304 82.098 L 126.456 82.098 L 126.456 84.815 L 123.992 84.815 L 123.992 77.135 L 126.456 77.135 L 126.456 79.851 L 128.304 79.851 L 128.304 77.135 L 130.768 77.135 L 130.768 84.815 Z M 131.631 80.979 C 131.631 79.581 131.893 78.559 132.418 77.916 C 132.943 77.272 133.892 76.95 135.265 76.95 C 136.638 76.95 137.586 77.272 138.112 77.916 C 138.636 78.559 138.899 79.581 138.899 80.979 C 138.899 81.675 138.843 82.262 138.732 82.74 C 138.62 83.214 138.429 83.626 138.16 83.982 C 137.89 84.333 137.516 84.59 137.038 84.754 C 136.563 84.917 135.972 85 135.265 85 C 134.557 85 133.967 84.917 133.492 84.754 C 133.013 84.59 132.639 84.333 132.37 83.982 C 132.1 83.626 131.909 83.214 131.798 82.74 C 131.686 82.262 131.631 81.675 131.631 80.979 Z M 134.279 79.702 L 134.279 82.897 L 135.3 82.897 C 135.637 82.897 135.882 82.858 136.035 82.784 C 136.187 82.704 136.264 82.525 136.264 82.248 L 136.264 79.053 L 135.23 79.053 C 134.901 79.053 134.66 79.09 134.508 79.167 C 134.355 79.246 134.279 79.424 134.279 79.702 Z M 142.176 81.094 L 142.027 84.815 L 139.453 84.815 L 139.919 77.135 L 143.136 77.135 L 144.099 81.041 L 144.183 81.041 L 145.146 77.135 L 148.358 77.135 L 148.829 84.815 L 146.255 84.815 L 146.106 81.094 L 146.018 81.094 L 145.085 84.815 L 143.197 84.815 L 142.251 81.094 L 142.176 81.094 Z M 154.68 80.132 L 154.68 81.914 L 152.216 81.914 L 152.216 82.849 L 155.235 82.849 L 155.235 84.815 L 149.752 84.815 L 149.752 77.135 L 155.173 77.135 L 154.865 79.101 L 152.216 79.101 L 152.216 80.132 L 154.68 80.132 Z M 160.703 84.815 L 156.281 84.815 L 156.281 77.135 L 160.272 77.135 C 161.011 77.135 161.539 77.278 161.856 77.565 C 162.173 77.851 162.331 78.27 162.331 78.82 C 162.331 79.367 162.23 79.79 162.028 80.088 C 161.829 80.39 161.56 80.584 161.222 80.672 L 161.222 80.747 C 162.217 80.919 162.714 81.595 162.714 82.775 C 162.714 83.389 162.55 83.883 162.221 84.258 C 161.893 84.629 161.387 84.815 160.703 84.815 Z M 159.704 81.756 L 158.745 81.756 L 158.745 83.007 L 159.696 83.007 C 160.039 83.007 160.21 82.799 160.21 82.384 C 160.21 81.965 160.042 81.756 159.704 81.756 Z M 159.52 78.82 L 158.745 78.82 L 158.745 79.961 L 159.511 79.961 C 159.822 79.961 159.977 79.77 159.977 79.39 C 159.977 79.01 159.825 78.82 159.52 78.82 Z M 168.96 82.261 L 170.289 84.815 L 167.579 84.815 L 166.567 82.528 L 166.039 82.528 L 166.039 84.815 L 163.575 84.815 L 163.575 77.135 L 167.455 77.135 C 169.222 77.135 170.104 78.031 170.104 79.825 C 170.104 81.054 169.723 81.866 168.96 82.261 Z M 166.606 79.101 L 166.039 79.101 L 166.039 80.637 L 166.606 80.637 C 166.903 80.637 167.118 80.606 167.253 80.545 C 167.388 80.483 167.455 80.341 167.455 80.119 L 167.455 79.619 C 167.455 79.396 167.388 79.255 167.253 79.193 C 167.118 79.132 166.903 79.101 166.606 79.101 Z M 176.079 80.132 L 176.079 81.914 L 173.615 81.914 L 173.615 82.849 L 176.634 82.849 L 176.634 84.815 L 171.151 84.815 L 171.151 77.135 L 176.572 77.135 L 176.264 79.101 L 173.615 79.101 L 173.615 80.132 L 176.079 80.132 Z M 184.012 81.423 L 184.606 77.135 L 187.18 77.135 L 185.97 84.815 L 182.758 84.815 L 182.19 81.989 L 182.041 81.989 L 181.486 84.815 L 178.27 84.815 L 177.064 77.135 L 179.638 77.135 L 180.219 81.423 L 180.294 81.423 L 181.178 77.135 L 183.066 77.135 L 183.937 81.423 L 184.012 81.423 Z" style="fill: rgb(255, 255, 255); white-space: pre;"/>
</svg>
